X:105
T:Real Polkas(1). Le4.106, The
M:2/4
L:1/8
Q:1/4=100
B:L.Leadley MS#4 c1850
Z:Village Music Project, 2016 Ruairidh Greig
K:G
G(3E/G/B/ ed|.d.c.A>.G|.F.A.c.f.|.a.g.d.B|
G(3E/G/B/ ed|.d.c.A>.G|FAcf|.g.d.gzH"Fine":|
|:e(3g/a/g/ fe|d{c'/}b/>^a/ bd|.c{b/}a/>^g/ .a.c|B{a/}.g/>.f/ .g.d|
e(3g/a/g/ .f.e|d {c'/}b/>^a/ bd|c(3A/c/e/ ba|dAdz:|
.G.c.e (3.G/.c/.e/|.g.f.d.B|.G.B.d (3.G/.B/.d/|.a.g.e.c|
EGc (3E/G/c/|.e.d.A.F|G(3F/G/B/ .e.d|.c.G.c|]

